material/.icons/material/briefcase-edit.svg

<svg xmlns="http://www.w3.org/2000/svg" viewBox="0 0 24 24"><path d="M14 2a2 2 0 012 2v2h4a2 2 0 012 2L10.85 19v2H4a2 2 0 01-2-2V8c0-1.11.89-2 2-2h4V4c0-1.11.89-2 2-2h4m0 4V4h-4v2h4m7.04 6.13c-.14 0-.28.06-.39.17l-1 1 2.05 2.05 1-1c.22-.21.22-.56 0-.77l-1.28-1.28a.533.533 0 00-.38-.17m-1.97 1.75L13 19.94V22h2.06l6.06-6.07-2.05-2.05z"/></svg>

<?xml version="1.0" encoding="UTF-8"?><!DOCTYPE svg PUBLIC "-//W3C//DTD SVG 1.1//EN" "http://www.w3.org/Graphics/SVG/1.1/DTD/svg11.dtd"><svg xmlns="http://www.w3.org/2000/svg" xmlns:xlink="http://www.w3.org/1999/xlink" version="1.1" id="mdi-briefcase-edit" width="24" height="24" viewBox="0 0 24 24"><path d="M14,2A2,2 0 0,1 16,4V6H20A2,2 0 0,1 22,8L10.85,19C10.85,20.1 10.85,19.5 10.85,21H4C2.89,21 2,20.1 2,19V8C2,6.89 2.89,6 4,6H8V4C8,2.89 8.89,2 10,2H14M14,6V4H10V6H14M21.04,12.13C20.9,12.13 20.76,12.19 20.65,12.3L19.65,13.3L21.7,15.35L22.7,14.35C22.92,14.14 22.92,13.79 22.7,13.58L21.42,12.3C21.31,12.19 21.18,12.13 21.04,12.13M19.07,13.88L13,19.94V22H15.06L21.12,15.93L19.07,13.88Z" /></svg>
